img/ico/callback-ico.svg

<svg width="24" height="24" viewBox="0 0 24 24" fill="none" xmlns="http://www.w3.org/2000/svg">
<g clip-path="url(#clip0_6002_834)">
<path opacity="0.998" fill-rule="evenodd" clip-rule="evenodd" d="M3.71059 1.99141C4.05827 1.9469 4.35452 2.04711 4.59936 2.292C5.64392 3.88352 6.68274 5.47899 7.71581 7.07841C7.81821 7.47698 7.77976 7.86237 7.60039 8.23455C7.03485 9.19812 6.44619 10.1462 5.83439 11.0786C6.09098 11.7547 6.42571 12.3867 6.83859 12.9747C7.93449 14.5195 9.24647 15.849 10.7746 16.9634C11.4341 17.4383 12.1459 17.8198 12.9099 18.108C13.7617 17.5554 14.6197 17.0121 15.4839 16.4778C15.7436 16.3243 16.0206 16.2164 16.3149 16.1541C16.4611 16.1387 16.6073 16.1387 16.7535 16.1541C16.8255 16.1786 16.8948 16.2094 16.9613 16.2466C18.5527 17.278 20.1379 18.3185 21.7168 19.3682C21.8807 19.5557 21.9652 19.7754 21.9707 20.0271C21.9541 20.3092 21.8733 20.5712 21.7283 20.8133C21.0771 21.7047 20.35 22.5334 19.5468 23.299C19.2701 23.5531 18.9622 23.7612 18.6234 23.9233C18.4702 23.9483 18.3163 23.9675 18.1617 23.9811C17.0538 23.9527 15.9842 23.733 14.9529 23.3221C13.4022 22.6886 11.9632 21.8714 10.636 20.8711C7.60353 18.5813 4.968 15.9029 2.72948 12.836C1.91422 11.6811 1.22936 10.4479 0.674931 9.13634C0.230502 8.05891 -0.00420444 6.93746 -0.0291569 5.77198C-0.0325342 5.5432 0.0251849 5.33126 0.14398 5.1361C0.379237 4.78473 0.640858 4.45331 0.928864 4.14182C1.65872 3.37167 2.46283 2.69728 3.34123 2.11858C3.46464 2.06841 3.58775 2.02602 3.71059 1.99141Z" fill="#DC3545"/>
<path opacity="0.999" fill-rule="evenodd" clip-rule="evenodd" d="M15.3342 0.98999C15.3787 1.56069 15.3935 2.13964 15.3789 2.72683C16.8667 2.7159 18.354 2.72748 19.8407 2.76157C21.2111 3.06468 22.1072 3.90995 22.529 5.29736C22.5703 5.46504 22.6 5.63486 22.6183 5.80683C22.6294 7.86786 22.6332 9.92891 22.6294 11.99C21.8858 11.99 21.1421 11.99 20.3985 11.99C20.4022 10.0602 20.3985 8.13033 20.3873 6.20052C20.3479 5.61147 20.0541 5.23708 19.5061 5.07736C18.1308 5.0435 16.7551 5.03192 15.3789 5.04262C15.3863 5.62178 15.3789 6.20073 15.3565 6.77946C14.1098 5.81992 12.8679 4.855 11.6309 3.88473C12.866 2.9196 14.1004 1.9547 15.3342 0.98999Z" fill="#DC3545"/>
</g>
<defs>
<clipPath id="clip0_6002_834">
<rect width="24" height="24" fill="white"/>
</clipPath>
</defs>
</svg>

<svg width="24" height="24" viewBox="0 0 24 24" fill="currentColor" xmlns="http://www.w3.org/2000/svg" class="svg-icon">
    <path
        d="M3.71 1.991q.522-.066.89.301a780 780 0 0 1 3.116 4.786q.153.598-.116 1.157a67 67 0 0 1-1.766 2.844 8.6 8.6 0 0 0 1.005 1.896 17.3 17.3 0 0 0 3.936 3.988q.989.713 2.135 1.145 1.278-.83 2.574-1.63.39-.231.83-.324.22-.023.44 0 .107.037.207.093a487 487 0 0 1 4.756 3.121q.246.281.254.66a1.7 1.7 0 0 1-.243.785 18.5 18.5 0 0 1-2.181 2.486 3.8 3.8 0 0 1-.924.624 6 6 0 0 1-.461.058 9.2 9.2 0 0 1-3.21-.659 19.2 19.2 0 0 1-4.316-2.45 38.3 38.3 0 0 1-7.907-8.036 19.7 19.7 0 0 1-2.054-3.7A9.3 9.3 0 0 1-.03 5.772q-.006-.343.173-.636.353-.527.785-.994Q2.024 2.987 3.34 2.119q.186-.075.37-.128" />
    <path
        d="M15.334.99q.068.856.045 1.737 2.232-.017 4.462.035 2.055.454 2.688 2.535.062.252.09.51.015 3.09.01 6.183H20.4q.005-2.895-.012-5.79-.06-.883-.88-1.123a127 127 0 0 0-4.128-.034q.01.869-.022 1.736a514 514 0 0 1-3.726-2.894z" />
</svg>
